!!! OTL: Literature151
!!! Chapter: 5
!!! Section: IV
!!! Page: 381
!!! Mode: 
!!! Encoder: DJB
**kern
*staff1
*I"Piano
=1-
*clefG2
*k[f#c#g#d#]
*E:
*M9/8
4.r
4.r
8r
8r
8b\
=2
4.a#/
4.e/
8r
8a#\L
16cc#\L
16b\JJ
=3
4.a#/
4.e/
8r
8a#\L
16cc#\L
16b\JJ
=4
4.a#/
4.b\
[4.gg#\
=5
4.gg#\]
4.ff#\
4.ee\
=6
[4.dd#\
4dd#\]
[8ee\
8ee\L]
8cc#\
8g#\J
=7
!!linebreak:original
4a/
[8cc#\
8cc#/L]
8a#/
8e#/J
8f#/L
8.cc#/
16b/Jk
=8
8.r
8.b\
8.gg#\L
8.ggn\J
8.ff#\L
40.a#\LL
40.b\
40.a#\
40.an\
40.a#\JJJ
=9
8ff#\L
8ffn\J
4r
8ee\L
8a#\J
[4.ccn\
=10
4.cc\_
4cc\]
8cc#\
8.dd#\L
8.cc#\J
=11
4b#\
4cc#\
4.d#/
4bn\
=12
!!linebreak:original
4.a#/
4.e/
8r
8a#\L
16cc#\L
16b\JJ
=13
4.a#/
4.e/
8r
8a#\L
16cc#\L
16b\JJ
=14
2.b\
4r
8r
==
*-
